X:1
T:Nuala's Jig
C:Nigel Gatherer
Z:Nigel Gatherer
M:6/8
L:1/8
Q:1/1=300
K:G
&quot;G&quot;G2B &quot;G&quot;dcA | &quot;D&quot;AGF &quot;G&quot;GBd | &quot;G&quot;g3  &quot;G&quot;d2B | &quot;D&quot;cAG &quot;D&quot;FED |
&quot;G&quot;G2B &quot;G&quot;dcA | &quot;D&quot;AGF &quot;G&quot;GBd | &quot;G&quot;g3  &quot;D&quot;afd | &quot;D&quot;cAF &quot;G&quot;G3 :|
&quot;Em&quot;B2e gfe | &quot;D&quot;faf def | &quot;G&quot;g3  &quot;G&quot;d2B | &quot;D&quot;cAG FED |
&quot;Em&quot;B2e gfe | &quot;D&quot;faf def | &quot;G&quot;g3  &quot;D&quot;afd | &quot;D&quot;cAF &quot;G&quot;G3 :|
